!!!COM: Palestrina, Giovanni Perluigi da
!!!OPR: O admirabile commercium
!!!OTL: Sanctus
**kern	**kern	**kern	**kern	**kern
*Ibass	*Itenor	*Itenor	*Icalto	*Icant
!Bassus	!Tenor 2	!Tenor 1	!Altus	!Cantus
*clefF4	*clefGv2	*clefGv2	*clefG2	*clefG2
*k[]	*k[]	*k[]	*k[]	*k[]
*G:mix	*G:mix	*G:mix	*G:mix	*G:mix
*M4/2	*M4/2	*M4/2	*M4/2	*M4/2
=1	=1	=1	=1	=1
0r	1r	0G	0b	[0dd
.	[1g	.	.	.
=2	=2	=2	=2	=2
0r	2g]	0d	0a	0dd]
.	4f#	.	.	.
.	4e	.	.	.
.	1f#	.	.	.
=3	=3	=3	=3	=3
0r	1g	0G	0b	0dd
.	2r	.	.	.
.	[2g	.	.	.
=4	=4	=4	=4	=4
0r	4g]	2.c	1.cc	0ee
.	4f	.	.	.
.	4e	.	.	.
.	4d	4d	.	.
.	1c	4e	.	.
.	.	4f	.	.
.	.	[2g	2b	.
=5	=5	=5	=5	=5
0D	1d	2g]	0a	[0dd
.	.	4f#	.	.
.	.	4e	.	.
.	2r	1f#	.	.
.	[2d	.	.	.
=6	=6	=6	=6	=6
0G	4d]	1g	2b	0dd]
.	4c	.	.	.
.	4B	.	4dd	.
.	4A	.	4cc	.
.	4G	2r	4b	.
.	4A	.	4a	.
.	2B	[2g	4g	.
.	.	.	4f	.
=7	=7	=7	=7	=7
0C	2c	4g]	2.e	2.gg
.	.	4f	.	.
.	2.g	4e	.	.
.	.	4d	4f	4ff
.	.	4c	2g	4ee
.	4f	4d	.	4dd
.	4e	2e	[2cc	4cc
.	4d	.	.	4b
=8	=8	=8	=8	=8
2.F	0c	2f	4cc]	2.a
.	.	.	4b	.
.	.	1a	4a	.
4G	.	.	4g	4b
4A	.	.	2f	1cc
4B	.	.	.	.
[2c	.	2g	2e	.
=9	=9	=9	=9	=9
2c]	0G	0g	0d	0dd
4B	.	.	.	.
4A	.	.	.	.
1B	.	.	.	.
=10	=10	=10	=10	=10
2c	2r	1e	2c	2r
2.c	2.g	.	2.cc	2.ee
.	.	1r	.	.
4c	4g	.	4cc	4ee
2c	2g	.	2cc	2ee
=11	=11	=11	=11	=11
1F	1g	0r	1cc	1ff
2c	2g	.	1cc	2ee
4F	[2a	.	.	[2ff
4G	.	.	.	.
=12	=12	=12	=12	=12
4A	2a]	0r	1cc	2ff]
4B	.	.	.	.
2c	2g	.	.	2ee
1F	2f	.	1a	2dd
.	2e	.	.	2cc
=13	=13	=13	=13	=13
2G	1d	2r	[0g	0b
2.G	.	2.d	.	.
.	1r	.	.	.
4G	.	4d	.	.
2G	.	2d	.	.
=14	=14	=14	=14	=14
1c	2r	1e	1g]	0r
.	2.g	.	.	.
2B	.	2d	2r	.
.	4g	.	.	.
[2c	2g	[2e	[2g	.
=15	=15	=15	=15	=15
2c]	2c	2e]	4g]	0r
.	.	.	4g	.
2B	2d	2d	2g	.
2A	[1e	2c	1a	.
2A	.	2c	.	.
=16	=16	=16	=16	=16
2E	2e]	2B	2g	0r
2F	2d	2A	1a	.
2E	2c	1e	.	.
2E	4B	.	2g	.
.	4c	.	.	.
=17	=17	=17	=17	=17
2D	2d	2A	2f	1r
2C	1G	1c	2e	.
[1G	.	.	[1d	2r
.	[2g	4B	.	[2dd
.	.	4A	.	.
=18	=18	=18	=18	=18
1G]	2g]	2B	1d]	4dd]
.	.	.	.	4dd
.	2g	2B	.	2dd
1r	2g	1c	2r	1ee
.	2c	.	[2g	.
=19	=19	=19	=19	=19
0r	2B	0r	4g]	2dd
.	.	.	4g	.
.	1c	.	2g	1ee
.	.	.	1a	.
.	2d	.	.	2dd
=20	=20	=20	=20	=20
0r	0e	0r	2g	1cc
.	.	.	1a	.
.	.	.	.	1b
.	.	.	2g	.
=21	=21	=21	=21	=21
1r	2A	1r	2f	1a
.	1c	.	2e	.
2r	.	2r	[1d	1g
[2G	4B	[2g	.	.
.	4A	.	.	.
=22	=22	=22	=22	=22
4G]	1B	4g]	1d]	2r
4G	.	4g	.	.
2G	.	2g	.	2dd
1A	1c	2e	2r	2cc
.	.	2f	2c	2a
=23	=23	=23	=23	=23
2G	1r	2.e	2B	2b
1A	.	.	4c	4a
.	.	4d	4d	4b
.	2r	2c	4e	4cc
.	.	.	4f	4a
2G	[2d	2B	2g	4b
.	.	.	.	4cc
=24	=24	=24	=24	=24
2F	4d]	2A	2a	1dd
.	4d	.	.	.
2G	2d	2B	2g	.
1C	1e	1c	[1g	2cc
.	.	.	.	2cc
=25	=25	=25	=25	=25
2r	2d	1G	2g]	2b
1C	1e	.	2g	4cc
.	.	.	.	4dd
.	.	2r	2e	4ee
.	.	.	.	4cc
2D	2d	[2A	[2a	[2ff
=26	=26	=26	=26	=26
2F	2c	2A]	2a]	2ff]
2G	2B	2d	1g	2dd
1D	1A	[1d	.	2.dd
.	.	.	2f#	.
.	.	.	.	4cc
=27	=27	=27	=27	=27
1G	1G	1d]	1g	0b
2r	2r	2r	2r	.
2G	2d	2g	2b	.
=28	=28	=28	=28	=28
2G	2d	2g	2b	0r
2G	2d	2g	2b	.
[1c	[1e	[1g	[1cc	.
=29	=29	=29	=29	=29
2c]	2e]	2g]	2cc]	0r
2G	2d	2g	2b	.
1G	1d	1g	1b	.
=30	=30	=30	=30	=30
1A	1c	1e	1a	0r
1E	2B	1e	1g	.
.	[2c	.	.	.
=31	=31	=31	=31	=31
1F	2c]	1A	1.a	2r
.	2c	.	.	2cc
2F	2A	2c	.	2cc
2E	[2c	2c	2g	2cc
=32	=32	=32	=32	=32
1D	2c]	1d	2f	1.ff
.	2B	.	2d	.
1C	2c	2G	1g	.
.	2g	2c	.	2ee
=33	=33	=33	=33	=33
0r	2g	2c	0r	2ee
.	2g	2c	.	1ee
.	[1a	[1f	.	.
.	.	.	.	4dd
.	.	.	.	4cc
=34	=34	=34	=34	=34
0r	2a]	2f]	2r	2dd
.	2g	2c	2cc	2.ee
.	2g	1c	2cc	.
.	.	.	.	4dd
.	[2a	.	2cc	[2cc
=35	=35	=35	=35	=35
0r	2a]	1d	1f	2cc]
.	1f	.	.	2b
.	.	2A	2a	1cc
.	2e	2A	2a	.
=36	=36	=36	=36	=36
0r	2d	2B	1g	2dd
.	2c	2c	.	2ee
.	2e	1A	1a	1cc
.	2f#	.	.	.
=37	=37	=37	=37	=37
1r	1g	1G	2r	1b
.	.	.	2d	.
1A	1c	1r	2e	2r
.	.	.	2f	2cc
=38	=38	=38	=38	=38
2B	0r	1g	2d	2dd
2c	.	.	2.c	2ee
1A	.	1a	.	1cc
.	.	.	4d	.
.	.	.	4e	.
.	.	.	4f#	.
=39	=39	=39	=39	=39
1G	2r	2d	1g	1.b
.	2d	1g	.	.
1r	2e	.	1r	.
.	2f#	[2a	.	2a
=40	=40	=40	=40	=40
0r	2g	4a]	1r	2b
.	.	4g	.	.
.	2c	1g	.	2cc
.	1d	.	2r	1a
.	.	2f#	2a	.
=41	=41	=41	=41	=41
1E	1G	2g	2b	1g
.	.	2e	1cc	.
2F#	2A	1d	.	2r
2G	2B	.	[2b	2g
=42	=42	=42	=42	=42
1E	1G	2g	4b]	2b
.	.	.	4a	.
.	.	2G	1g	2cc
1D	1A	1d	.	1dd
.	.	.	2f#	.
=43	=43	=43	=43	=43
2r	2G	2r	1g	1b
2G	2B	2d	.	.
2C	2c	2e	1r	1r
2D	2A	2f	.	.
=44	=44	=44	=44	=44
2E	2G	2g	0r	0r
2C	2c	2e	.	.
1G	1B	1d	.	.
=45	=45	=45	=45	=45
1G	1B	1d	2r	2r
.	.	.	2d	2dd
1r	1r	2r	2e	2g
.	.	2d	2f#	2a
=46	=46	=46	=46	=46
0r	0r	2G	2g	2b
.	.	2A	2e	2cc
.	.	2B	2d	4dd
.	.	.	.	4cc
.	.	2G	[2g	4b
.	.	.	.	8a
.	.	.	.	8g
=47	=47	=47	=47	=47
1r	1r	1d	2g]	1a
.	.	.	2f#	.
2r	2r	1G	2.g	1b
2G	2g	.	.	.
.	.	.	4f	.
=48	=48	=48	=48	=48
2A	2c	2r	2e	2r
2B	2d	2g	2d	2dd
2c	2e	2g	1c	2g
2A	2f#	2c	.	2a
=49	=49	=49	=49	=49
1G	1g	2d	0r	2b
.	.	2e	.	1cc
1G	2.g	1d	.	.
.	.	.	.	2b
.	4f	.	.	.
=50	=50	=50	=50	=50
1.c	4e	2c	1g	2.cc
.	4d	.	.	.
.	1e	2g	.	.
.	.	.	.	4b
.	.	2c	2a	2a
2B	2d	2d	2b	2g
=51	=51	=51	=51	=51
1A	1c	2e	2cc	1a
.	.	2f#	2cc	.
1G	2r	2.g	2b	1dd
.	[2g	.	2b	.
.	.	4f	.	.
=52	=52	=52	=52	=52
1.C	4g]	4e	1.g	2r
.	4f	4d	.	.
.	1e	1c	.	2gg
.	.	.	.	2cc
2G	2d	2B	2g	2dd
=53	=53	=53	=53	=53
0C	0c	4c	0g	2ee
.	.	4d	.	.
.	.	4e	.	2ee
.	.	4f	.	.
.	.	1e	.	1cc
=54	=54	=54	=54	=54
0G	0B	0d	0g	0dd
==	==	==	==	==
*-	*-	*-	*-	*-
!!!CDT: 1525/^1526/-1594/2/2
!!!OCY: Italia
!!!AGN: Mass (Parody)
!!!AST: renaissance, vocal
!!!ASW: Motet 1569 (Palestrina)
!!!PWK: Masses, Book 8
!!!RNB: Cadence finals: C,D
!!!YOR: Le Opere Complete, v. 24, p. 52
!!!YOO: Rome, Italy: Fratelli Scalera
!!!END: 1992//
!!!EED: John Miller
!!!YEC: Copyright 2000, John Miller
!!!YEN: United States of America
!!!YEM: Rights to all derivative electronic formats reserved.
!!!YEM: Refer to licensing agreement for further details.
!!!YEM: This file must be accompanied by the licensing agreement.
!!!YEM: A copy of the licensing agreement may be found at http://www.music-cog.ohio-state.edu/HumdrumDatabases/Palestrina/license.txt
!!!EMD: converted to Humdrum by Bret Aarden
